packages/foundations/assets/icons/functional/images/security/lock_open_14.svg

<svg width="14" height="14" viewBox="0 0 14 14" fill="none" xmlns="http://www.w3.org/2000/svg">
<g clip-path="url(#clip0_187_260)">
<path fill-rule="evenodd" clip-rule="evenodd" d="M7.00005 1.39999C8.35569 1.39999 9.50942 2.37002 9.75297 3.68867C9.82319 4.06884 9.57192 4.43394 9.19175 4.50416C8.83874 4.56936 8.49871 4.35736 8.39571 4.02236C8.25531 3.2701 7.67758 2.79999 7.00005 2.79999C6.26223 2.79999 5.60253 3.39389 5.60049 4.19955C5.5993 4.67033 5.5993 5.14115 5.60049 5.61201H9.80005C10.5732 5.61201 11.2 6.23881 11.2 7.01201V11.2C11.2 11.9732 10.5732 12.6 9.80005 12.6H4.20005C3.42685 12.6 2.80005 11.9732 2.80005 11.2V7.01201C2.80005 6.23881 3.42685 5.61201 4.20005 5.61201L4.20049 4.19955C4.20049 2.6534 5.4539 1.39999 7.00005 1.39999ZM9.80005 7.01201H4.20005V11.2H9.80005V7.01201ZM7.00005 7.69999C7.35903 7.69999 7.6549 7.97022 7.69534 8.31836L7.70005 8.39999V9.79656C7.70005 10.1832 7.38665 10.4966 7.00005 10.4966C6.64106 10.4966 6.34519 10.2263 6.30476 9.8782L6.30005 9.79656V8.39999C6.30005 8.01339 6.61345 7.69999 7.00005 7.69999Z" fill="#1A1C1F"/>
</g>
<defs>
<clipPath id="clip0_187_260">
<rect width="14" height="14" fill="white"/>
</clipPath>
</defs>
</svg>

<svg xmlns="http://www.w3.org/2000/svg" width="14" height="14" fill="none"><g clip-path="url(#a)"><path fill="#1A1C1F" fill-rule="evenodd" d="M7 1.4a2.8 2.8 0 0 1 2.753 2.289.7.7 0 0 1-1.357.333C8.256 3.27 7.678 2.8 7 2.8c-.738 0-1.397.594-1.4 1.4v1.412h4.2a1.4 1.4 0 0 1 1.4 1.4V11.2a1.4 1.4 0 0 1-1.4 1.4H4.2a1.4 1.4 0 0 1-1.4-1.4V7.012a1.4 1.4 0 0 1 1.4-1.4V4.2A2.8 2.8 0 0 1 7 1.4m2.8 5.612H4.2V11.2h5.6zM7 7.7a.7.7 0 0 1 .695.618L7.7 8.4v1.397a.7.7 0 0 1-1.395.081L6.3 9.797V8.4a.7.7 0 0 1 .7-.7" clip-rule="evenodd"/></g><defs><clipPath id="a"><path fill="#fff" d="M0 0h14v14H0z"/></clipPath></defs></svg>
